app/dist/common/images/take-two-interactive-software.svg

<svg height="18" width="18" xmlns="http://www.w3.org/2000/svg"><path d="m0 0h18v18h-18z" fill="#f6f8fd"/><path d="m8 13h-2v-6h-2v-2h6v2h-2z" fill="#1476c6"/><path d="m14 13h-5v-1.804l2.207-2.014c.474-.414 1.04-.897 1.039-1.586 0-.46-.284-.827-.76-.827-.723.001-.926.76-.96 1.369l-1.7-.388c.212-1.69 1.154-2.748 2.829-2.75 1.55-.002 2.617.847 2.62 2.547 0 .85-.383 1.483-.994 2.035l-1.733 1.418h2.452z"/></svg>

<!-- by TradingView --><svg width="18" height="18" xmlns="http://www.w3.org/2000/svg"><path fill="#F6F8FD" d="M0 0h18v18H0z"/><path d="M8 13H6V7H4V5h6v2H8v6z" fill="#1476C6"/><path d="M14 13H9v-1.804l2.207-2.014c.474-.414 1.04-.897 1.039-1.586 0-.46-.284-.827-.76-.827-.723.001-.926.76-.96 1.369L8.826 7.75C9.038 6.06 9.98 5.002 11.655 5c1.55-.002 2.617.847 2.62 2.547 0 .85-.383 1.483-.994 2.035L11.548 11H14v2z" fill="#000"/></svg>
